systematic/svg/Bandai - WonderSwan Color SCT-001 R.svg

<?xml version="1.0" encoding="UTF-8" standalone="no"?>
<svg
   xmlns:dc="http://purl.org/dc/elements/1.1/"
   xmlns:cc="http://creativecommons.org/ns#"
   xmlns:rdf="http://www.w3.org/1999/02/22-rdf-syntax-ns#"
   xmlns:svg="http://www.w3.org/2000/svg"
   xmlns="http://www.w3.org/2000/svg"
   viewBox="0 0 320 320"
   height="320"
   width="320"
   xml:space="preserve"
   version="1.1"
   id="svg2"><metadata
     id="metadata8"><rdf:RDF><cc:Work
         rdf:about=""><dc:format>image/svg+xml</dc:format><dc:type
           rdf:resource="http://purl.org/dc/dcmitype/StillImage" /></cc:Work></rdf:RDF></metadata><defs
     id="defs6"><clipPath
       id="clipPath16"
       clipPathUnits="userSpaceOnUse"><path
         id="path18"
         d="M 0,256 256,256 256,0 0,0 0,256 Z" /></clipPath><clipPath
       id="clipPath24"
       clipPathUnits="userSpaceOnUse"><path
         id="path26"
         d="M 3.99965,204 252,204 252,52 3.99965,52 l 0,152 z" /></clipPath></defs><g
     transform="matrix(1.25,0,0,-1.25,0,320)"
     id="g10"><g
       id="g12"><g
         clip-path="url(#clipPath16)"
         id="g14"><g
           id="g20"><g
             id="g22" /><g
             id="g28"><g
               style="opacity:0.5"
               id="g30"
               clip-path="url(#clipPath24)"><g
                 id="g32"
                 transform="translate(77.3716,204)"><path
                   id="path34"
                   style="fill:#ffffff;fill-opacity:1;fill-rule:nonzero;stroke:none"
                   d="m 0,0 c -7.538,0 -14.841,-0.884 -22.317,-2.703 -3.006,-0.527 -6.162,-0.677 -9.498,-0.836 -9.762,-0.464 -21.911,-1.043 -32.288,-12.738 -3.938,-4.439 -6.454,-12.23 -7.919,-24.516 -1.113,-9.327 -1.55,-21.01 -1.266,-33.788 0.484,-21.692 3.157,-47.879 8.038,-57.482 6.447,-12.684 15.081,-19.116 25.663,-19.116 l 0.198,0.002 c 15.704,0 26.121,-0.329 33.727,-0.569 4.497,-0.142 8.049,-0.254 11.222,-0.254 4.835,0 8.585,0.278 12.538,0.93 8.559,1.403 16.533,2.056 25.088,2.056 8.336,0 16.089,-0.626 24.297,-1.29 8.93,-0.72 18.164,-1.467 28.885,-1.467 14.718,0 29.174,1.402 45.491,4.411 13.457,2.482 31.492,7.849 32.75,25.729 0.013,0.187 0.019,0.374 0.019,0.562 l 0,92.113 c 0,0.074 -10e-4,0.148 -0.003,0.223 -0.259,9.319 -3.749,15.69 -10.667,19.477 -5.445,2.981 -12.181,3.976 -21.505,5.353 -2.611,0.385 -5.31,0.784 -8.243,1.264 -9.797,1.607 -18.582,2.388 -26.853,2.388 -12.091,0.001 -20.958,-1.647 -29.533,-3.24 -7.546,-1.403 -14.673,-2.727 -23.569,-2.727 -9.192,0 -17.403,1.466 -26.097,3.016 C 19.335,-1.627 10.212,0 0,0" /></g></g></g></g><g
           transform="translate(19.2534,75.5615)"
           id="g36"><path
             id="path38"
             style="fill:#b80000;fill-opacity:1;fill-rule:nonzero;stroke:none"
             d="m 0,0 c 4.685,-9.217 10.529,-14.831 18.729,-14.738 37.458,0 44.949,-1.852 56.187,0 44.949,7.369 63.677,-7.369 123.61,3.684 20.197,3.725 25.649,10.306 26.221,18.423 l 0,92.113 c -0.433,15.519 -11.238,14.739 -33.712,18.423 -41.31,6.773 -52.442,-3.684 -78.661,-3.684 -26.221,0 -44.95,11.053 -74.916,3.684 C 24.415,115.527 11.237,119.518 0,106.852 -11.631,93.741 -7.492,14.738 0,0" /></g><g
           transform="translate(206.71,169.231)"
           id="g40"><path
             id="path42"
             style="fill:#404040;fill-opacity:1;fill-rule:nonzero;stroke:none"
             d="m 0,0 c -0.222,0.173 -0.477,0.293 -0.753,0.353 -26.565,5.743 -51.409,8.508 -73.779,8.414 -25.854,-0.187 -48.519,-4.593 -65.549,-12.742 -0.734,-0.351 -1.155,-1.139 -1.037,-1.946 0.14,-0.961 0.213,-1.986 0.213,-2.987 0,-11.221 -9.195,-20.349 -20.498,-20.349 -1.594,0 -3.177,0.18 -4.702,0.532 -0.899,0.207 -1.785,-0.256 -2.138,-1.086 -3.447,-8.142 -3.279,-16.782 0.488,-24.988 0.36,-0.788 1.221,-1.213 2.076,-1.046 1.346,0.283 2.786,0.425 4.276,0.425 11.303,0 20.498,-9.183 20.498,-20.465 0,-0.564 -0.053,-1.153 -0.109,-1.822 -0.067,-0.781 0.364,-1.518 1.077,-1.845 15.261,-7.006 37.411,-10.989 62.374,-11.217 0.354,0.064 0.791,0.123 1.115,0.359 2.6,1.897 4.216,2.369 8.236,2.406 4.127,-0.043 5.649,-0.876 8.152,-2.83 0.328,-0.259 0.732,-0.397 1.147,-0.397 0.047,0 0.091,0 0.139,0.004 15.497,1.148 35.026,4.447 58.05,9.808 0.189,0.046 0.371,0.119 0.538,0.217 7.88,4.746 12.415,22.57 13.292,37.126 C 14.325,-23.821 9.427,-7.344 0,0" /></g><g
           transform="translate(144,74)"
           id="g44"><path
             id="path46"
             style="fill:#eac500;fill-opacity:1;fill-rule:nonzero;stroke:none"
             d="m 0,0 c 0,-2.209 -2.687,-4 -6,-4 -3.313,0 -6,1.791 -6,4 0,2.209 2.687,4 6,4 3.313,0 6,-1.791 6,-4" /></g><g
           transform="translate(110.5713,76)"
           id="g48"><path
             id="path50"
             style="fill:#ecf0f1;fill-opacity:1;fill-rule:nonzero;stroke:none"
             d="m 0,0 6.857,0 c 1.42,0 2.572,-0.896 2.572,-2 0,-1.104 -1.152,-2 -2.572,-2 L 0,-4 c -1.42,0 -2.571,0.896 -2.571,2 0,1.104 1.151,2 2.571,2" /></g><g
           transform="translate(90.5713,76)"
           id="g52"><path
             id="path54"
             style="fill:#ecf0f1;fill-opacity:1;fill-rule:nonzero;stroke:none"
             d="m 0,0 6.857,0 c 1.42,0 2.572,-0.896 2.572,-2 0,-1.104 -1.152,-2 -2.572,-2 L 0,-4 c -1.42,0 -2.571,0.896 -2.571,2 0,1.104 1.151,2 2.571,2" /></g><g
           transform="translate(40.563,166.4717)"
           id="g56"><path
             id="path58"
             style="fill:#ecf0f1;fill-opacity:1;fill-rule:nonzero;stroke:none"
             d="m 0,0 c 0.363,-0.416 0.887,-0.653 1.437,-0.653 0.55,0 1.074,0.237 1.437,0.653 l 6.68,7.635 c 0.585,0.669 0.63,1.657 0.108,2.379 C 7.789,12.592 4.21,13.867 0.067,13.451 -2.65,13.167 -5.929,12.029 -6.984,9.672 -7.29,8.992 -7.17,8.196 -6.68,7.635 L 0,0 Z" /></g><g
           transform="translate(43.437,157.5312)"
           id="g60"><path
             id="path62"
             style="fill:#ecf0f1;fill-opacity:1;fill-rule:nonzero;stroke:none"
             d="m 0,0 c -0.727,0.832 -2.147,0.832 -2.874,0 l -6.68,-7.635 c -0.49,-0.561 -0.61,-1.357 -0.304,-2.038 1.055,-2.356 4.334,-3.495 7.051,-3.778 0.526,-0.054 1.042,-0.08 1.547,-0.08 3.47,0 6.411,1.265 8.048,3.517 0.522,0.722 0.477,1.71 -0.108,2.379 L 0,0 Z" /></g><g
           transform="translate(38.1831,162.0015)"
           id="g64"><path
             id="path66"
             style="fill:#ecf0f1;fill-opacity:1;fill-rule:nonzero;stroke:none"
             d="m 0,0 c 0,0.55 -0.237,1.074 -0.652,1.437 l -7.635,6.681 c -0.672,0.589 -1.658,0.626 -2.378,0.108 -2.58,-1.875 -3.866,-5.462 -3.437,-9.596 0.284,-2.718 1.422,-5.997 3.778,-7.052 0.252,-0.114 0.516,-0.168 0.781,-0.168 0.453,0 0.902,0.162 1.256,0.472 l 7.635,6.681 C -0.237,-1.074 0,-0.55 0,0" /></g><g
           transform="translate(59.9189,163.3716)"
           id="g68"><path
             id="path70"
             style="fill:#ecf0f1;fill-opacity:1;fill-rule:nonzero;stroke:none"
             d="M 0,0 C -0.284,2.718 -1.422,5.997 -3.778,7.052 -4.46,7.363 -5.256,7.24 -5.815,6.748 L -13.45,0.067 c -0.415,-0.363 -0.652,-0.887 -0.652,-1.437 0,-0.55 0.237,-1.074 0.652,-1.438 l 7.635,-6.68 c 0.357,-0.313 0.807,-0.472 1.256,-0.472 0.393,0 0.787,0.121 1.122,0.364 C -0.857,-7.721 0.429,-4.135 0,0" /></g><g
           transform="translate(40.563,94.4746)"
           id="g72"><path
             id="path74"
             style="fill:#ecf0f1;fill-opacity:1;fill-rule:nonzero;stroke:none"
             d="m 0,0 c 0.363,-0.414 0.887,-0.652 1.437,-0.652 0.55,0 1.074,0.238 1.437,0.652 l 6.68,7.637 c 0.586,0.671 0.63,1.655 0.108,2.379 -1.875,2.577 -5.465,3.834 -9.591,3.438 -2.719,-0.283 -6,-1.425 -7.055,-3.781 C -7.29,8.994 -7.17,8.196 -6.68,7.637 L 0,0 Z" /></g><g
           transform="translate(43.437,85.5322)"
           id="g76"><path
             id="path78"
             style="fill:#ecf0f1;fill-opacity:1;fill-rule:nonzero;stroke:none"
             d="m 0,0 c -0.727,0.828 -2.147,0.828 -2.874,0 l -6.68,-7.637 c -0.49,-0.559 -0.61,-1.357 -0.304,-2.036 1.055,-2.356 4.336,-3.498 7.055,-3.781 0.524,-0.052 1.04,-0.078 1.545,-0.078 3.468,0 6.41,1.263 8.046,3.516 0.522,0.724 0.478,1.708 -0.108,2.379 L 0,0 Z" /></g><g
           transform="translate(38.1826,90.0029)"
           id="g80"><path
             id="path82"
             style="fill:#ecf0f1;fill-opacity:1;fill-rule:nonzero;stroke:none"
             d="m 0,0 c 0,0.553 -0.236,1.074 -0.652,1.437 l -7.635,6.681 c -0.672,0.59 -1.658,0.634 -2.378,0.109 -2.58,-1.873 -3.864,-5.459 -3.437,-9.591 0.282,-2.719 1.422,-6 3.778,-7.059 0.25,-0.112 0.516,-0.168 0.781,-0.168 0.453,0 0.902,0.16 1.256,0.474 l 7.635,6.681 C -0.236,-1.073 0,-0.552 0,0" /></g><g
           transform="translate(59.9194,91.3682)"
           id="g84"><path
             id="path86"
             style="fill:#ecf0f1;fill-opacity:1;fill-rule:nonzero;stroke:none"
             d="M 0,0 C -0.282,2.719 -1.422,6 -3.778,7.059 -4.455,7.361 -5.256,7.253 -5.815,6.753 L -13.45,0.071 c -0.416,-0.362 -0.652,-0.883 -0.652,-1.436 0,-0.552 0.236,-1.073 0.652,-1.436 l 7.635,-6.681 c 0.357,-0.314 0.807,-0.474 1.256,-0.474 0.393,0 0.787,0.119 1.122,0.365 C -0.857,-7.719 0.427,-4.132 0,0" /></g><g
           transform="translate(219.4375,89.5322)"
           id="g88"><path
             id="path90"
             style="fill:#ecf0f1;fill-opacity:1;fill-rule:nonzero;stroke:none"
             d="m 0,0 c -0.728,0.828 -2.147,0.828 -2.875,0 l -6.68,-7.637 c -0.49,-0.559 -0.609,-1.357 -0.303,-2.036 1.054,-2.356 4.335,-3.498 7.054,-3.781 0.524,-0.052 1.04,-0.078 1.545,-0.078 3.469,0 6.41,1.263 8.047,3.516 0.522,0.724 0.477,1.708 -0.108,2.379 L 0,0 Z" /></g><g
           transform="translate(235.9189,95.3682)"
           id="g92"><path
             id="path94"
             style="fill:#ecf0f1;fill-opacity:1;fill-rule:nonzero;stroke:none"
             d="M 0,0 C -0.281,2.719 -1.422,6 -3.777,7.059 -4.454,7.361 -5.256,7.253 -5.814,6.753 l -7.635,-6.682 c -0.416,-0.362 -0.653,-0.883 -0.653,-1.436 0,-0.552 0.237,-1.073 0.653,-1.436 l 7.635,-6.681 c 0.357,-0.314 0.806,-0.474 1.255,-0.474 0.394,0 0.787,0.119 1.122,0.365 C -0.857,-7.719 0.427,-4.132 0,0" /></g><g
           transform="translate(243.0654,174)"
           id="g96"><path
             id="path98"
             style="fill:#7b0000;fill-opacity:1;fill-rule:nonzero;stroke:none"
             d="m 0,0 -19.69,0 -8.441,0 c -0.516,0 -0.934,-0.446 -0.934,-0.997 l 0,-0.006 c 0,-0.551 0.418,-0.997 0.934,-0.997 l 8.441,0 19.69,0 0.935,0 0,0.997 0,0.006 L 0.935,0 0,0 Z" /></g><g
           transform="translate(223.4668,170)"
           id="g100"><path
             id="path102"
             style="fill:#7b0000;fill-opacity:1;fill-rule:nonzero;stroke:none"
             d="m 0,0 -6.592,0 c -0.483,0 -0.875,-0.42 -0.875,-0.937 l 0,-0.125 C -7.467,-1.581 -7.075,-2 -6.592,-2 L 0,-2 l 19.658,0 0.875,0 0,0.938 0,0.125 0,0.937 L 19.658,0 0,0 Z" /></g><g
           transform="translate(223.5713,166)"
           id="g104"><path
             id="path106"
             style="fill:#7b0000;fill-opacity:1;fill-rule:nonzero;stroke:none"
             d="m 0,0 -4.846,0 c -0.4,0 -0.725,-0.35 -0.725,-0.781 l 0,-0.438 C -5.571,-1.65 -5.246,-2 -4.846,-2 L 0,-2 l 19.703,0 0.726,0 0,0.781 0,0.438 0,0.781 L 19.703,0 0,0 Z" /></g><g
           transform="translate(223.6924,162)"
           id="g108"><path
             id="path110"
             style="fill:#7b0000;fill-opacity:1;fill-rule:nonzero;stroke:none"
             d="m 0,0 -2.772,0 c -0.508,0 -0.92,-0.446 -0.92,-0.997 l 0,-0.006 C -3.692,-1.554 -3.28,-2 -2.772,-2 L 0,-2 l 19.388,0 0.92,0 0,0.997 0,0.006 0,0.997 -0.92,0 L 0,0 Z" /></g><g
           transform="translate(223.833,158)"
           id="g112"><path
             id="path114"
             style="fill:#7b0000;fill-opacity:1;fill-rule:nonzero;stroke:none"
             d="m 0,0 -0.92,0 c -0.504,0 -0.913,-0.446 -0.913,-0.997 l 0,-0.006 C -1.833,-1.554 -1.424,-2 -0.92,-2 l 0.92,0 19.254,0 0.913,0 0,0.997 0,0.006 0,0.997 L 19.254,0 0,0 Z" /></g><path
           id="path116"
           style="fill:#8c8c8c;fill-opacity:1;fill-rule:nonzero;stroke:none"
           d="m 84,164 108,0 0,-68 -108,0 0,68 z" /></g></g></g></svg>

<?xml version="1.0" encoding="UTF-8" standalone="no"?>
<svg
   xmlns:dc="http://purl.org/dc/elements/1.1/"
   xmlns:cc="http://creativecommons.org/ns#"
   xmlns:rdf="http://www.w3.org/1999/02/22-rdf-syntax-ns#"
   xmlns:svg="http://www.w3.org/2000/svg"
   xmlns="http://www.w3.org/2000/svg"
   viewBox="0 0 330.66659 202.66665"
   height="202.66666"
   width="330.6666"
   xml:space="preserve"
   id="svg2"
   version="1.1"><metadata
     id="metadata8"><rdf:RDF><cc:Work
         rdf:about=""><dc:format>image/svg+xml</dc:format><dc:type
           rdf:resource="http://purl.org/dc/dcmitype/StillImage" /></cc:Work></rdf:RDF></metadata><defs
     id="defs6"><clipPath
       id="clipPath18"
       clipPathUnits="userSpaceOnUse"><path
         id="path16"
         d="M 0,256 H 256 V 0 H 0 Z" /></clipPath><clipPath
       id="clipPath26"
       clipPathUnits="userSpaceOnUse"><path
         id="path24"
         d="M 3.99965,204 H 252 V 52 H 3.99965 Z" /></clipPath></defs><g
     transform="matrix(1.3333333,0,0,-1.3333333,-5.3328665,271.99999)"
     id="g10"><g
       id="g12"><g
         clip-path="url(#clipPath18)"
         id="g14"><g
           id="g20"><g
             id="g22" /><g
             id="g34"><g
               style="opacity:0.5"
               id="g32"
               clip-path="url(#clipPath26)"><g
                 id="g30"
                 transform="translate(77.3716,204)"><path
                   id="path28"
                   style="fill:#ffffff;fill-opacity:1;fill-rule:nonzero;stroke:none"
                   d="m 0,0 c -7.538,0 -14.841,-0.884 -22.317,-2.703 -3.006,-0.527 -6.162,-0.677 -9.498,-0.836 -9.762,-0.464 -21.911,-1.043 -32.288,-12.738 -3.938,-4.439 -6.454,-12.23 -7.919,-24.516 -1.113,-9.327 -1.55,-21.01 -1.266,-33.788 0.484,-21.692 3.157,-47.879 8.038,-57.482 6.447,-12.684 15.081,-19.116 25.663,-19.116 l 0.198,0.002 c 15.704,0 26.121,-0.329 33.727,-0.569 4.497,-0.142 8.049,-0.254 11.222,-0.254 4.835,0 8.585,0.278 12.538,0.93 8.559,1.403 16.533,2.056 25.088,2.056 8.336,0 16.089,-0.626 24.297,-1.29 8.93,-0.72 18.164,-1.467 28.885,-1.467 14.718,0 29.174,1.402 45.491,4.411 13.457,2.482 31.492,7.849 32.75,25.729 0.013,0.187 0.019,0.374 0.019,0.562 v 92.113 c 0,0.074 -10e-4,0.148 -0.003,0.223 -0.259,9.319 -3.749,15.69 -10.667,19.477 -5.445,2.981 -12.181,3.976 -21.505,5.353 -2.611,0.385 -5.31,0.784 -8.243,1.264 -9.797,1.607 -18.582,2.388 -26.853,2.388 -12.091,0.001 -20.958,-1.647 -29.533,-3.24 -7.546,-1.403 -14.673,-2.727 -23.569,-2.727 -9.192,0 -17.403,1.466 -26.097,3.016 C 19.335,-1.627 10.212,0 0,0" /></g></g></g></g><g
           transform="translate(19.2534,75.5615)"
           id="g36"><path
             id="path38"
             style="fill:#b80000;fill-opacity:1;fill-rule:nonzero;stroke:none"
             d="m 0,0 c 4.685,-9.217 10.529,-14.831 18.729,-14.738 37.458,0 44.949,-1.852 56.187,0 44.949,7.369 63.677,-7.369 123.61,3.684 20.197,3.725 25.649,10.306 26.221,18.423 v 92.113 c -0.433,15.519 -11.238,14.739 -33.712,18.423 -41.31,6.773 -52.442,-3.684 -78.661,-3.684 -26.221,0 -44.95,11.053 -74.916,3.684 C 24.415,115.527 11.237,119.518 0,106.852 -11.631,93.741 -7.492,14.738 0,0" /></g><g
           transform="translate(206.71,169.231)"
           id="g40"><path
             id="path42"
             style="fill:#404040;fill-opacity:1;fill-rule:nonzero;stroke:none"
             d="m 0,0 c -0.222,0.173 -0.477,0.293 -0.753,0.353 -26.565,5.743 -51.409,8.508 -73.779,8.414 -25.854,-0.187 -48.519,-4.593 -65.549,-12.742 -0.734,-0.351 -1.155,-1.139 -1.037,-1.946 0.14,-0.961 0.213,-1.986 0.213,-2.987 0,-11.221 -9.195,-20.349 -20.498,-20.349 -1.594,0 -3.177,0.18 -4.702,0.532 -0.899,0.207 -1.785,-0.256 -2.138,-1.086 -3.447,-8.142 -3.279,-16.782 0.488,-24.988 0.36,-0.788 1.221,-1.213 2.076,-1.046 1.346,0.283 2.786,0.425 4.276,0.425 11.303,0 20.498,-9.183 20.498,-20.465 0,-0.564 -0.053,-1.153 -0.109,-1.822 -0.067,-0.781 0.364,-1.518 1.077,-1.845 15.261,-7.006 37.411,-10.989 62.374,-11.217 0.354,0.064 0.791,0.123 1.115,0.359 2.6,1.897 4.216,2.369 8.236,2.406 4.127,-0.043 5.649,-0.876 8.152,-2.83 0.328,-0.259 0.732,-0.397 1.147,-0.397 0.047,0 0.091,0 0.139,0.004 15.497,1.148 35.026,4.447 58.05,9.808 0.189,0.046 0.371,0.119 0.538,0.217 7.88,4.746 12.415,22.57 13.292,37.126 C 14.325,-23.821 9.427,-7.344 0,0" /></g><g
           transform="translate(144,74)"
           id="g44"><path
             id="path46"
             style="fill:#eac500;fill-opacity:1;fill-rule:nonzero;stroke:none"
             d="m 0,0 c 0,-2.209 -2.687,-4 -6,-4 -3.313,0 -6,1.791 -6,4 0,2.209 2.687,4 6,4 3.313,0 6,-1.791 6,-4" /></g><g
           transform="translate(110.5713,76)"
           id="g48"><path
             id="path50"
             style="fill:#ecf0f1;fill-opacity:1;fill-rule:nonzero;stroke:none"
             d="m 0,0 h 6.857 c 1.42,0 2.572,-0.896 2.572,-2 0,-1.104 -1.152,-2 -2.572,-2 H 0 c -1.42,0 -2.571,0.896 -2.571,2 0,1.104 1.151,2 2.571,2" /></g><g
           transform="translate(90.5713,76)"
           id="g52"><path
             id="path54"
             style="fill:#ecf0f1;fill-opacity:1;fill-rule:nonzero;stroke:none"
             d="m 0,0 h 6.857 c 1.42,0 2.572,-0.896 2.572,-2 0,-1.104 -1.152,-2 -2.572,-2 H 0 c -1.42,0 -2.571,0.896 -2.571,2 0,1.104 1.151,2 2.571,2" /></g><g
           transform="translate(40.563,166.4717)"
           id="g56"><path
             id="path58"
             style="fill:#ecf0f1;fill-opacity:1;fill-rule:nonzero;stroke:none"
             d="m 0,0 c 0.363,-0.416 0.887,-0.653 1.437,-0.653 0.55,0 1.074,0.237 1.437,0.653 l 6.68,7.635 c 0.585,0.669 0.63,1.657 0.108,2.379 C 7.789,12.592 4.21,13.867 0.067,13.451 -2.65,13.167 -5.929,12.029 -6.984,9.672 -7.29,8.992 -7.17,8.196 -6.68,7.635 Z" /></g><g
           transform="translate(43.437,157.5312)"
           id="g60"><path
             id="path62"
             style="fill:#ecf0f1;fill-opacity:1;fill-rule:nonzero;stroke:none"
             d="m 0,0 c -0.727,0.832 -2.147,0.832 -2.874,0 l -6.68,-7.635 c -0.49,-0.561 -0.61,-1.357 -0.304,-2.038 1.055,-2.356 4.334,-3.495 7.051,-3.778 0.526,-0.054 1.042,-0.08 1.547,-0.08 3.47,0 6.411,1.265 8.048,3.517 0.522,0.722 0.477,1.71 -0.108,2.379 z" /></g><g
           transform="translate(38.1831,162.0015)"
           id="g64"><path
             id="path66"
             style="fill:#ecf0f1;fill-opacity:1;fill-rule:nonzero;stroke:none"
             d="m 0,0 c 0,0.55 -0.237,1.074 -0.652,1.437 l -7.635,6.681 c -0.672,0.589 -1.658,0.626 -2.378,0.108 -2.58,-1.875 -3.866,-5.462 -3.437,-9.596 0.284,-2.718 1.422,-5.997 3.778,-7.052 0.252,-0.114 0.516,-0.168 0.781,-0.168 0.453,0 0.902,0.162 1.256,0.472 l 7.635,6.681 C -0.237,-1.074 0,-0.55 0,0" /></g><g
           transform="translate(59.9189,163.3716)"
           id="g68"><path
             id="path70"
             style="fill:#ecf0f1;fill-opacity:1;fill-rule:nonzero;stroke:none"
             d="M 0,0 C -0.284,2.718 -1.422,5.997 -3.778,7.052 -4.46,7.363 -5.256,7.24 -5.815,6.748 L -13.45,0.067 c -0.415,-0.363 -0.652,-0.887 -0.652,-1.437 0,-0.55 0.237,-1.074 0.652,-1.438 l 7.635,-6.68 c 0.357,-0.313 0.807,-0.472 1.256,-0.472 0.393,0 0.787,0.121 1.122,0.364 C -0.857,-7.721 0.429,-4.135 0,0" /></g><g
           transform="translate(40.563,94.4746)"
           id="g72"><path
             id="path74"
             style="fill:#ecf0f1;fill-opacity:1;fill-rule:nonzero;stroke:none"
             d="m 0,0 c 0.363,-0.414 0.887,-0.652 1.437,-0.652 0.55,0 1.074,0.238 1.437,0.652 l 6.68,7.637 c 0.586,0.671 0.63,1.655 0.108,2.379 -1.875,2.577 -5.465,3.834 -9.591,3.438 -2.719,-0.283 -6,-1.425 -7.055,-3.781 C -7.29,8.994 -7.17,8.196 -6.68,7.637 Z" /></g><g
           transform="translate(43.437,85.5322)"
           id="g76"><path
             id="path78"
             style="fill:#ecf0f1;fill-opacity:1;fill-rule:nonzero;stroke:none"
             d="m 0,0 c -0.727,0.828 -2.147,0.828 -2.874,0 l -6.68,-7.637 c -0.49,-0.559 -0.61,-1.357 -0.304,-2.036 1.055,-2.356 4.336,-3.498 7.055,-3.781 0.524,-0.052 1.04,-0.078 1.545,-0.078 3.468,0 6.41,1.263 8.046,3.516 0.522,0.724 0.478,1.708 -0.108,2.379 z" /></g><g
           transform="translate(38.1826,90.0029)"
           id="g80"><path
             id="path82"
             style="fill:#ecf0f1;fill-opacity:1;fill-rule:nonzero;stroke:none"
             d="m 0,0 c 0,0.553 -0.236,1.074 -0.652,1.437 l -7.635,6.681 c -0.672,0.59 -1.658,0.634 -2.378,0.109 -2.58,-1.873 -3.864,-5.459 -3.437,-9.591 0.282,-2.719 1.422,-6 3.778,-7.059 0.25,-0.112 0.516,-0.168 0.781,-0.168 0.453,0 0.902,0.16 1.256,0.474 l 7.635,6.681 C -0.236,-1.073 0,-0.552 0,0" /></g><g
           transform="translate(59.9194,91.3682)"
           id="g84"><path
             id="path86"
             style="fill:#ecf0f1;fill-opacity:1;fill-rule:nonzero;stroke:none"
             d="M 0,0 C -0.282,2.719 -1.422,6 -3.778,7.059 -4.455,7.361 -5.256,7.253 -5.815,6.753 L -13.45,0.071 c -0.416,-0.362 -0.652,-0.883 -0.652,-1.436 0,-0.552 0.236,-1.073 0.652,-1.436 l 7.635,-6.681 c 0.357,-0.314 0.807,-0.474 1.256,-0.474 0.393,0 0.787,0.119 1.122,0.365 C -0.857,-7.719 0.427,-4.132 0,0" /></g><g
           transform="translate(219.4375,89.5322)"
           id="g88"><path
             id="path90"
             style="fill:#ecf0f1;fill-opacity:1;fill-rule:nonzero;stroke:none"
             d="m 0,0 c -0.728,0.828 -2.147,0.828 -2.875,0 l -6.68,-7.637 c -0.49,-0.559 -0.609,-1.357 -0.303,-2.036 1.054,-2.356 4.335,-3.498 7.054,-3.781 0.524,-0.052 1.04,-0.078 1.545,-0.078 3.469,0 6.41,1.263 8.047,3.516 0.522,0.724 0.477,1.708 -0.108,2.379 z" /></g><g
           transform="translate(235.9189,95.3682)"
           id="g92"><path
             id="path94"
             style="fill:#ecf0f1;fill-opacity:1;fill-rule:nonzero;stroke:none"
             d="M 0,0 C -0.281,2.719 -1.422,6 -3.777,7.059 -4.454,7.361 -5.256,7.253 -5.814,6.753 l -7.635,-6.682 c -0.416,-0.362 -0.653,-0.883 -0.653,-1.436 0,-0.552 0.237,-1.073 0.653,-1.436 l 7.635,-6.681 c 0.357,-0.314 0.806,-0.474 1.255,-0.474 0.394,0 0.787,0.119 1.122,0.365 C -0.857,-7.719 0.427,-4.132 0,0" /></g><g
           transform="translate(243.0654,174)"
           id="g96"><path
             id="path98"
             style="fill:#7b0000;fill-opacity:1;fill-rule:nonzero;stroke:none"
             d="m 0,0 h -19.69 -8.441 c -0.516,0 -0.934,-0.446 -0.934,-0.997 v -0.006 c 0,-0.551 0.418,-0.997 0.934,-0.997 H -19.69 0 0.935 V -1.003 -0.997 0 Z" /></g><g
           transform="translate(223.4668,170)"
           id="g100"><path
             id="path102"
             style="fill:#7b0000;fill-opacity:1;fill-rule:nonzero;stroke:none"
             d="M 0,0 H -6.592 C -7.075,0 -7.467,-0.42 -7.467,-0.937 V -1.062 C -7.467,-1.581 -7.075,-2 -6.592,-2 H 0 19.658 20.533 V -1.062 -0.937 0 h -0.875 z" /></g><g
           transform="translate(223.5713,166)"
           id="g104"><path
             id="path106"
             style="fill:#7b0000;fill-opacity:1;fill-rule:nonzero;stroke:none"
             d="m 0,0 h -4.846 c -0.4,0 -0.725,-0.35 -0.725,-0.781 V -1.219 C -5.571,-1.65 -5.246,-2 -4.846,-2 H 0 19.703 20.429 V -1.219 -0.781 0 h -0.726 z" /></g><g
           transform="translate(223.6924,162)"
           id="g108"><path
             id="path110"
             style="fill:#7b0000;fill-opacity:1;fill-rule:nonzero;stroke:none"
             d="m 0,0 h -2.772 c -0.508,0 -0.92,-0.446 -0.92,-0.997 V -1.003 C -3.692,-1.554 -3.28,-2 -2.772,-2 H 0 19.388 20.308 V -1.003 -0.997 0 h -0.92 z" /></g><g
           transform="translate(223.833,158)"
           id="g112"><path
             id="path114"
             style="fill:#7b0000;fill-opacity:1;fill-rule:nonzero;stroke:none"
             d="M 0,0 H -0.92 C -1.424,0 -1.833,-0.446 -1.833,-0.997 V -1.003 C -1.833,-1.554 -1.424,-2 -0.92,-2 H 0 19.254 20.167 V -1.003 -0.997 0 h -0.913 z" /></g><path
           id="path116"
           style="fill:#8c8c8c;fill-opacity:1;fill-rule:nonzero;stroke:none"
           d="M 84,164 H 192 V 96 H 84 Z" /></g></g></g></svg>
